svgs/sharp-light/up-from-line.svg

<svg xmlns="http://www.w3.org/2000/svg" viewBox="0 0 384 512"><!--! Font Awesome Pro 6.6.0 by @fontawesome - https://fontawesome.com License - https://fontawesome.com/license (Commercial License) Copyright 2024 Fonticons, Inc. --><path d="M240 240l0-32 32 0 48 0 0-17.7L192 75.1 64 190.3 64 208l48 0 32 0 0 32 0 112 96 0 0-112zm112 0l-32 0-16 0-32 0 0 32 0 80 0 32-32 0-96 0-32 0 0-32 0-80 0-32-32 0-16 0-32 0 0-32 0-32L192 32 352 176l0 32 0 32zM16 480L0 480l0-32 16 0 352 0 16 0 0 32-16 0L16 480z"/></svg>

<svg xmlns="http://www.w3.org/2000/svg" viewBox="0 0 384 512"><!--! Font Awesome Pro 6.4.2 by @fontawesome - https://fontawesome.com License - https://fontawesome.com/license (Commercial License) Copyright 2023 Fonticons, Inc. --><path d="M240 240V208h32 48V190.3L192 75.1 64 190.3V208h48 32v32V352h96V240zm112 0H320 304 272v32 80 32H240 144 112V352 272 240H80 64 32V208 176L192 32 352 176v32 32zM16 480H0V448H16 368h16v32H368 16z"/></svg>
